X: 28389
T: Muing A tSionnaigh
R: jig
M: 6/8
K: Gmajor
{b}gdB {c}BAG|Bdg {b}gdB|D2 A D2 A|DAD cBA|
{b}gdB {c}BAG|Bdg {b}gdB|D2 A cBA|1 {c}AGF ~G3:|2 {c}AGF GAB||
~A3 {c}AFD|GBd dBG|A^ce A^ce|dfb {c'}afd|
FAA AFD|GBd dBG|A^ce {b}gfe|1 {g}ed^c d3:|2 {g}ed^c dfa||

